X:4
T:Piper's Socks, The
R:jig
C:Henrik Norbeck
H:April 1991
M:6/8
K:Dmix
~A3 dcA|dcA GED|~A3 dcA|dag edc|~A3 dcA|dcA cde|gag edB|1 cAA A2G:|2 cAA A2B||
cee gee|aee ged|cee gee|aga ged|cee gee|aee geg|aba ged|cAA A2B|
~c3 gcc|acc ged|~c3 gcc|aga ged|~c3 gcc|acc geg|aba ged|cAA A2G||

